src/assets/trophy.svg

<svg width="12" height="12" viewBox="0 0 12 12" fill="none" xmlns="http://www.w3.org/2000/svg">
<path d="M9.59367 11.0204H2.8857V12H9.59367V11.0204Z" fill="white"/>
<path d="M6.72304 10.123C7.39295 11.2817 8.34008 11.9998 9.59367 11.9998V11.0201C8.74544 11.0201 8.08282 10.5178 7.57108 9.6326C7.24024 9.06035 7.03662 8.44514 6.95953 8.05967L6.88079 7.66591H5.59858L5.51984 8.05967C5.44275 8.44514 5.23913 9.06035 4.90829 9.6326C4.39655 10.5178 3.73393 11.0201 2.8857 11.0201V11.9998C4.13929 11.9998 5.08642 11.2817 5.75633 10.123C5.95823 9.77372 6.11852 9.4161 6.23969 9.0856C6.36085 9.4161 6.52114 9.77372 6.72304 10.123Z" fill="white"/>
<path fill-rule="evenodd" clip-rule="evenodd" d="M1.92305 3.80081C2.39532 6.57577 3.91011 8.64564 6.00025 8.64564C8.0897 8.64564 9.66323 6.49344 10.0779 3.79791L10.5566 0.805956L10.6421 0.271379L6.02901 0L1.89879 0.239589L1.35838 0.271379L1.92305 3.80081ZM2.88904 3.64129L2.49622 1.18581L6.02852 0.978015L9.50337 1.18536L9.10968 3.64609C8.75905 5.92531 7.48635 7.66604 5.99976 7.66604C4.51074 7.66604 3.2902 5.99824 2.88904 3.64129Z" fill="white"/>
<path d="M6.01064 7.66545H5.76065V8.6451H6.01064C9.32643 8.6451 12.0001 6.0826 12.0001 2.88433V2.3945H9.63545V3.37415H10.9949C10.7402 5.79026 8.6206 7.66545 6.01064 7.66545Z" fill="white"/>
<path d="M2.36469 3.37464V2.39499H0V2.88481C0 6.08309 2.67371 8.64559 5.9895 8.64559H6.23948V7.66594H5.9895C3.37953 7.66594 1.2599 5.79074 1.00524 3.37464H2.36469Z" fill="white"/>
</svg>

<svg width="12" height="12" fill="none" xmlns="http://www.w3.org/2000/svg"><path d="M9.594 11.02H2.886V12h6.708v-.98z" fill="#fff"/><path d="M6.723 10.123C7.393 11.282 8.34 12 9.593 12v-.98c-.848 0-1.51-.502-2.022-1.387A5.577 5.577 0 0 1 6.96 8.06l-.08-.394H5.6l-.08.394c-.076.385-.28 1-.61 1.573-.512.885-1.175 1.387-2.023 1.387V12c1.253 0 2.2-.718 2.87-1.877.202-.35.363-.707.484-1.037.12.33.281.688.483 1.037z" fill="#fff"/><path fill-rule="evenodd" clip-rule="evenodd" d="M1.923 3.8C2.395 6.577 3.91 8.647 6 8.647s3.663-2.153 4.078-4.848l.479-2.992.085-.535L6.03 0l-4.13.24-.54.031.564 3.53zm.966-.159l-.393-2.455L6.03.978l3.474.207-.393 2.461c-.35 2.28-1.624 4.02-3.11 4.02-1.49 0-2.71-1.668-3.111-4.025z" fill="#fff"/><path d="M6.01 7.665h-.25v.98h.25c3.316 0 5.99-2.562 5.99-5.76v-.49H9.635v.98h1.36C10.74 5.79 8.62 7.664 6.01 7.664z" fill="#fff"/><path d="M2.365 3.375v-.98H0v.49c0 3.198 2.674 5.76 5.99 5.76h.25v-.98h-.25c-2.61 0-4.73-1.874-4.985-4.29h1.36z" fill="#fff"/></svg>
